48x48/apps/4digits.svg

<svg height="48" width="48" xmlns="http://www.w3.org/2000/svg"><g transform="matrix(2 0 0 2 2 2)"><rect height="20" opacity=".2" rx="8" width="20" x="1" y="1.5"/><rect fill="#f4f4f7" height="20" rx="8" width="20" x="1" y="1"/><path d="m13.455 2.5a1.5 1.5 0 0 0 -1.016.44l-10 10a1.5 1.5 0 0 0 1.061 2.56h8.5v3.5a1.5 1.5 0 1 0 3 0v-3.5h3.5a1.5 1.5 0 1 0 0-3h-3.5v-8.5a1.5 1.5 0 0 0 -1.545-1.5zm-1.455 5.121v4.879h-4.879z" opacity=".1"/><path d="m13.5 18.5v-15l-10 10h15" fill="none" stroke="#db3c30" stroke-linecap="round" stroke-linejoin="round" stroke-width="3"/><path d="m9 1c-4.432 0-8 3.568-8 8v.5c0-4.432 3.568-8 8-8h4c4.432 0 8 3.568 8 8v-.5c0-4.432-3.568-8-8-8z" fill="#f4f4f7" opacity=".2"/></g></svg>

<svg height="48" width="48" xmlns="http://www.w3.org/2000/svg">
    <g transform="matrix(2 0 0 2 2 2)">
        <rect height="20" opacity=".2" rx="8" width="20" x="1" y="1.5"/>
        <rect fill="#f4f4f7" height="20" rx="8" width="20" x="1" y="1"/>
        <path d="M13.455 2.5a1.5 1.5 0 0 0-1.016.44l-10 10A1.5 1.5 0 0 0 3.5 15.5H12V19a1.5 1.5 0 1 0 3 0v-3.5h3.5a1.5 1.5 0 1 0 0-3H15V4a1.5 1.5 0 0 0-1.545-1.5zM12 7.621V12.5H7.121z" opacity=".1"/>
        <path d="M13.5 18.5v-15l-10 10h15" fill="none" stroke="#db3c30" stroke-linecap="round" stroke-linejoin="round" stroke-width="3"/>
        <path d="M9 1C4.568 1 1 4.568 1 9v.5c0-4.432 3.568-8 8-8h4c4.432 0 8 3.568 8 8V9c0-4.432-3.568-8-8-8z" fill="#f4f4f7" opacity=".2"/>
    </g>
</svg>
